svg/24/logo-wechat.svg

<svg width="24" height="24" viewBox="0 0 24 24" fill="currentColor" xmlns="http://www.w3.org/2000/svg"><path fill-rule="evenodd" clip-rule="evenodd" d="M20.7102 18.8243C21.3967 18.366 21.9627 17.7521 22.361 17.0338C22.7593 16.3154 22.9783 15.5133 23 14.6942C23 11.678 20.0327 9.23173 16.3734 9.23173C12.7141 9.23173 9.74681 11.6777 9.74681 14.6942C9.74681 17.7106 12.7141 20.1575 16.3734 20.1575C17.1051 20.1583 17.8333 20.0576 18.5367 19.8582L18.7311 19.8291C18.8554 19.8313 18.9769 19.8662 19.0831 19.9302L20.5342 20.7591L20.6616 20.8C20.7201 20.7999 20.7763 20.7769 20.8178 20.7359C20.8592 20.6949 20.8825 20.6393 20.8825 20.5814L20.8468 20.4218L20.5482 19.3199L20.5252 19.1799C20.5251 19.1103 20.5418 19.0417 20.574 18.9798C20.6062 18.918 20.6529 18.8646 20.7102 18.8243ZM8.95206 3.19995C4.56031 3.19995 1 6.13465 1 9.75598C1.02587 10.7387 1.28867 11.7012 1.76654 12.5631C2.2444 13.4251 2.92349 14.1616 3.74725 14.7113C3.81632 14.7597 3.87262 14.8238 3.91138 14.8982C3.95015 14.9726 3.97026 15.0552 3.97 15.1389L3.9425 15.3058L3.58406 16.6281L3.541 16.8193C3.54102 16.8889 3.56891 16.9557 3.61857 17.0049C3.66823 17.0542 3.7356 17.0821 3.80594 17.0823L3.95994 17.0333L5.70069 16.0383C5.82778 15.9615 5.97339 15.9198 6.12231 15.9177L6.35606 15.9521C7.20015 16.1915 8.07398 16.3127 8.95206 16.3122L9.38844 16.3013C9.21258 15.7836 9.1225 15.2412 9.12169 14.6951C9.12169 11.393 12.3685 8.7158 16.3734 8.7158L16.8056 8.72668C16.2066 5.595 12.9185 3.19995 8.95206 3.19995ZM14.1642 13.821C13.9895 13.821 13.8186 13.7697 13.6733 13.6736C13.528 13.5775 13.4147 13.441 13.3478 13.2812C13.2809 13.1215 13.2634 12.9457 13.2975 12.7761C13.3316 12.6065 13.4158 12.4507 13.5394 12.3284C13.663 12.2062 13.8204 12.1229 13.9918 12.0892C14.1633 12.0554 14.341 12.0727 14.5024 12.1389C14.6639 12.2051 14.8019 12.3171 14.899 12.4609C14.9961 12.6047 15.0479 12.7737 15.0479 12.9467C15.048 13.0615 15.0251 13.1752 14.9807 13.2812C14.9363 13.3873 14.8712 13.4837 14.7892 13.5649C14.7071 13.6461 14.6097 13.7104 14.5024 13.7543C14.3952 13.7983 14.2803 13.821 14.1642 13.821ZM18.5826 13.821C18.4077 13.8211 18.2368 13.77 18.0913 13.6741C17.9459 13.5781 17.8325 13.4416 17.7655 13.2819C17.6984 13.1221 17.6808 12.9463 17.7148 12.7767C17.7488 12.607 17.8329 12.4511 17.9564 12.3288C18.08 12.2064 18.2374 12.123 18.4089 12.0892C18.5803 12.0554 18.758 12.0727 18.9196 12.1388C19.0811 12.205 19.2192 12.317 19.3163 12.4608C19.4135 12.6046 19.4653 12.7737 19.4653 12.9467C19.4653 13.1784 19.3723 13.4006 19.2068 13.5645C19.0413 13.7284 18.8167 13.8208 18.5826 13.821ZM6.30106 8.70662C6.09138 8.70651 5.88644 8.64489 5.71215 8.52955C5.53787 8.41421 5.40207 8.25032 5.32193 8.05862C5.24179 7.86692 5.22091 7.65601 5.26192 7.45257C5.30293 7.24912 5.404 7.06228 5.55235 6.91566C5.70069 6.76905 5.88965 6.66925 6.09532 6.62888C6.30099 6.58852 6.51414 6.6094 6.70782 6.68889C6.9015 6.76837 7.06701 6.9029 7.18341 7.07545C7.29981 7.248 7.36188 7.45082 7.36177 7.65827C7.36178 7.79604 7.33434 7.93246 7.28103 8.05972C7.22771 8.18699 7.14956 8.30261 7.05105 8.39998C6.95254 8.49734 6.83559 8.57454 6.7069 8.62715C6.57821 8.67977 6.4403 8.70678 6.30106 8.70662ZM11.6022 8.70662C11.3925 8.70651 11.1876 8.64489 11.0133 8.52955C10.839 8.41421 10.7032 8.25032 10.6231 8.05862C10.5429 7.86692 10.522 7.65601 10.5631 7.45257C10.6041 7.24912 10.7051 7.06228 10.8535 6.91566C11.0018 6.76905 11.1908 6.66925 11.3965 6.62888C11.6021 6.58852 11.8153 6.6094 12.009 6.68889C12.2026 6.76837 12.3681 6.9029 12.4845 7.07545C12.6009 7.248 12.663 7.45082 12.6629 7.65827C12.6629 7.79604 12.6355 7.93245 12.5821 8.05971C12.5288 8.18697 12.4507 8.30259 12.3522 8.39995C12.2537 8.49732 12.1367 8.57451 12.008 8.62713C11.8793 8.67975 11.7414 8.70677 11.6022 8.70662Z"/></svg>

<svg xmlns="http://www.w3.org/2000/svg" width="24" height="24" fill="currentColor" viewBox="0 0 24 24">
  <path fill-rule="evenodd" d="M20.71 18.825a5.165 5.165 0 0 0 1.651-1.791c.398-.718.617-1.52.639-2.34 0-3.016-2.967-5.462-6.627-5.462-3.659 0-6.626 2.446-6.626 5.462 0 3.017 2.967 5.464 6.626 5.464a7.9 7.9 0 0 0 2.164-.3l.194-.029a.707.707 0 0 1 .352.101l1.451.83.128.04a.222.222 0 0 0 .156-.064.217.217 0 0 0 .064-.154l-.035-.16-.299-1.102-.023-.14a.432.432 0 0 1 .185-.355ZM8.952 3.2C4.56 3.2 1 6.135 1 9.756a6.12 6.12 0 0 0 .767 2.807 6.196 6.196 0 0 0 1.98 2.149.523.523 0 0 1 .223.427l-.028.167-.358 1.322-.043.192a.267.267 0 0 0 .265.263l.154-.05 1.74-.995a.838.838 0 0 1 .422-.12l.234.034c.844.24 1.718.36 2.596.36l.436-.01a5.015 5.015 0 0 1-.266-1.607c0-3.302 3.246-5.979 7.251-5.979l.433.01c-.6-3.13-3.888-5.526-7.854-5.526Zm5.212 10.621a.89.89 0 0 1-.816-.54.866.866 0 0 1 .191-.952.886.886 0 0 1 .963-.19.881.881 0 0 1 .546.808.865.865 0 0 1-.259.618.883.883 0 0 1-.625.256Zm4.419 0a.89.89 0 0 1-.817-.539.865.865 0 0 1 .19-.953.886.886 0 0 1 .964-.19.881.881 0 0 1 .545.808.87.87 0 0 1-.258.618.888.888 0 0 1-.624.256ZM6.3 8.707c-.21 0-.415-.062-.589-.177a1.051 1.051 0 0 1-.45-1.077c.04-.204.142-.39.29-.537a1.064 1.064 0 0 1 1.156-.227c.194.08.359.214.475.387a1.041 1.041 0 0 1-.476 1.551 1.07 1.07 0 0 1-.406.08Zm5.301 0c-.21 0-.414-.062-.589-.177a1.05 1.05 0 0 1-.45-1.077c.041-.204.142-.39.29-.537a1.063 1.063 0 0 1 1.156-.227c.194.08.36.214.476.387a1.041 1.041 0 0 1-.477 1.551 1.07 1.07 0 0 1-.406.08Z" clip-rule="evenodd"/>
</svg>
